X: 1
T:Jonathan's Tune
M:4/4
L:1/8
Q:100
C:Stephen P. McNally
S: 1997
K:G
DE F<D||: G6  AB| c<A e4 d2-|d4 Bd e<f|g4-gB d<e|f4-fB ^c<d|e4-ef g<e|
d B6 B|c4-ce d<c|B4-Bd B<G|A4-AG F<E|D4 DE F<D|G6 AB|
c<A e4 d2-|d4 Bd e<f|g4Bd e/2f/2g|a4 g f<e f|1g8-|g4DE F<D:|2g8-|g4Bd e<
f|
||:g4-gB d<e|f4-fB ^c<d|e4-ef g<e|d B6 B|c4-ce d<c|B4-Bd B<G|A4-AG F<E|
D4 DE F<D|G6 AB|c<A e4 d2-|d4 Bd e<f|g4Bd e/2f/2g|a4 g f<e f|1g8-
|g4Bd e<f:|2g8-|g8|
